X:1
T:Title
%%score { ( 1 3 ) | 2 }
L:1/8
M:6/8
K:F
V:1 treble nm="Grand Piano"
V:3 treble 
V:2 bass 
V:1
 z3 z2[Q:1/4=94] C | A>AA BcB | A3 A2 A | z2 =B, B,2 A |[M:5/8] C-C- C3 |[M:1/8] C | %6
[M:3/4] A>A AB cB | A3 A2 A | =B6 |[M:5/8] [Ec-]2 c3 |[M:1/8] A |[M:3/4] c6 | F6 | %13
 [Fd]>d dc [GB][FA] |[M:5/8] G2- [FG-] [EG]2 |[M:1/8] A |[M:3/4] c6 | f6 | %18
 [FAc]>[DFB] [CFA][B,EG] [A,F][B,CG] |[M:5/8] [A,CF]-[A,CF]- [A,CF]3 |] %20
V:2
 z3 z2 [F,A,] | [F,CF]>[F,CF][F,CF] [F,DF][F,EF][F,DF] | [F,CF]3 .[F,CF]3 | z2 [G,,F,] .[G,,F,]3 | %4
[M:5/8] z2 [C,F,] [C,G,]2 |[M:1/8] [C,E,] | %6
[M:3/4] [F,C]>[F,CF][K:treble] [F,CF][F,DF] [F,EF][F,DF] | [F,CF]3 .[F,CF]3 | %8
 z2 [G,F] [G,E]2 [G,DF] |[M:5/8][K:bass] C,2 [C,A,] [C,B,]2 |[M:1/8] z | %11
[M:3/4] z2 [F,B,] .[F,A,]3 | z2 [D,G,] [D,F,]2 [C,A,] | %13
 [B,,B,]>[K:treble][B,F] [B,F][A,CF][K:bass] [E,C][F,C] |[M:5/8] [C,C]2 [D,=B,] [C,C]2 |[M:1/8] z | %16
[M:3/4] z2 [F,B,] .[F,A,]3 | z2[K:treble] [A,_E] [B,D]2 [B,FB] | C,>C, C,C, C,C, | %19
[M:5/8] F,-F,- F,3 |] %20
V:3
 x6 | x6 | x6 | D6 |[M:5/8] z2 A, B,2 |[M:1/8] x |[M:3/4] x6 | x6 | z2 A G2 =B |[M:5/8] CG,F G2 | %10
[M:1/8] x |[M:3/4] z2 G F2 A | z2 E D2 [_EF] | x6 |[M:5/8] E2 z z2 |[M:1/8] x |[M:3/4] z2 G F2 A | %17
 z2 c B2 d | x6 |[M:5/8] x5 |] %20

